src/bright/hiso font bright_b.svg

<svg xmlns="http://www.w3.org/2000/svg" width="90" height="126" viewBox="0 0 90 126"><path fill="#000101" d="M54 54v-18l-36-18-18 9v72l36 18 36-18v-36l-18-9zm11.29 9l-11.29 5.65v-11.3l11.29 5.65zm-29.29 14.65v-14.65l14.65 7.32-14.65 7.33zm15-40.15v29.65l-15-7.5v-14.65l15-7.5zm-15 76.15v-30.97l30.98 15.48-30.98 15.49zm1.68-33.49l31.318-15.629.002 31.299-31.32-15.67z"/><text transform="translate(-108 -18)" fill="#F80071" font-family="'MyriadPro-Regular'" font-size="72">Letters 1-16</text></svg>

<svg xmlns="http://www.w3.org/2000/svg" width="90" height="126"><path fill="#000101" d="M54 54V36L18 18 0 27v72l36 18 36-18V63l-18-9zm11.29 9L54 68.65v-11.3L65.29 63zM36 77.65V63l14.65 7.32L36 77.65zM51 37.5v29.65l-15-7.5V45l15-7.5zm-15 76.15V82.68l30.98 15.48L36 113.65zm1.68-33.49l31.318-15.629L69 95.83 37.68 80.16z"/><text transform="translate(-108 -18)" fill="#F80071" font-family="'MyriadPro-Regular'" font-size="72">Letters 1-16</text></svg>
